X:1
T:Ålen
T:Ålen
T:Anders Haugen
T:Anders Jørgensen Reitan
C:Anders Haugen
Z:Anders Jørgensen Reitan
%%score [ 1 2 3 4 ]
L:1/8
Q:1/4=60
M:4/4
K:D
V:1 treble nm="Soprano"
V:2 treble nm="Alto"
V:3 treble-8 nm="Tenor"
V:4 bass nm="Bass"
V:1
 A3 G F2 E2 | F2 G2 A2 F2 | E3 F G2 F2 | B2 A2 F4 | d3 c B2 c2 | d2 e2 d2 B2 | A3 A A2 B2 | %7
w: Høit til fjelds og|langt fra fjæ- re|i det gam- le|Trøn- de- lag,|hvor i ly ved|kil- der skjæ- re|fug- len slår mund-|
 A2 ^G2 A4 | G3 G F2 D2 | B3 A G2 E2 | A3 d c2 B2 | (A^G) (AB) A4 | d3 c B2 A2 | B2 c2 d2 A2 | %14
w: har- pe- slag,|Der en bygd jeg|ved at næv- ne|som i da- gens|kla- * re _ favn|å- pner sig med|li- er jev- ne!|
 G3 F E2 B2 | A4 C4 | D6 z2 |] %17
w: Å- len er dens|gam- le|navn.|
V:2
 F3 D D2 E2 | D2 D2 E2 D2 | D3 D C2 D2 | D2 C2 A,4 | F3 F F2 F2 | F2 G2 F2 G2 | F3 F F2 F2 | %7
w: Høit til fjelds og|langt fra fjæ- re|i det gam- le|Trøn- de- lag,|hvor i ly ved|kil- der skjæ- re|fug- len slår mund-|
 E2 D2 C4 | D3 D D2 D2 | D3 D E2 E2 | F3 F F2 F2 | E2 D2 C4 | D3 D D2 D2 | G2 G2 A2 E2 | %14
w: har- pe- slag,|Der en bygd jeg|ved at næv- ne|som i da- gens|kla- re favn|å- pner sig med|li- er jev- ne!|
 D3 D B,2 D2 | C4 A,4 | A,6 z2 |] %17
w: Å- len er dens|gam- le|navn.|
V:3
 d3 B A2 A2 | A2 B2 c2 A2 | B3 A G2 A2 | G2 E2 F4 | B3 ^A B2 B2 | B2 c2 d2 d2 | d3 d d2 d2 | %7
w: Høit til fjelds og|langt fra fjæ- re|i det gam- le|Trøn- de- lag,|hvor i ly ved|kil- der skjæ- re|fug- len slår mund-|
 c2 B2 A4 | D3 D A2 A2 | G3 A B2 c2 | d3 A ^A2 B2 | c2 (F^G) A4 | A3 A G2 A2 | A2 A2 A2 A2 | %14
w: har- pe- slag,|Der en bygd jeg|ved at næv- ne|som i da- gens|kla- re _ favn|å- pner sig med|li- er jev- ne!|
 B3 A G2 F2 | E4 G4 | F6 z2 |] %17
w: Å- len er dens|gam- le|navn.|
V:4
 D,3 D, D,2 C,2 | D,2 B,,2 A,,2 D,2 | G,3 F, E,2 D,2 | G,,2 A,,2 D,4 | B,,3 C, D,2 F,2 | %5
w: Høit til fjelds og|langt fra fjæ- re|i det gam- le|Trøn- de- lag,|hvor i ly ved|
 B,2 ^A,2 B,2 G,2 | D,3 D, D,2 D,2 | E,2 E,2 A,,4 | B,,3 B,, A,,2 F,2 | G,3 F, E,2 A,2 | %10
w: kil- der skjæ- re|fug- len slår mund-|har- pe- slag,|Der en bygd jeg|ved at næv- ne|
 D,3 D, D,2 D,2 | E,2 E,2 A,,4 | F,3 F, G,2 F,2 | E,2 E,2 F,2 C,2 | D,3 D, G,,2 G,,2 | A,,4 A,,4 | %16
w: som i da- gens|kla- re favn|å- pner sig med|li- er jev- ne!|Å- len er dens|gam- le|
 D,6 z2 |] %17
w: navn.|

